X:132
T:French Dance
O:No 132 Wm Clarke MS  Feltwell, Norfolk
N:Bars 2, 6 etc dotted cr +  3 semi qrs in MS
I:abc2nwc
M:6/8
L:1/8
K:C
.C.C.C|C2D E2F|G2"^*" (3G/2A/2B/2 c2G|c2G GAG|GFE .C.C.C|
C2D E2F|G2"^*" (3G/2A/2B/2 c2G|ABc ^FGA|G2||
AGF DFD|C3||e2c'|g2g a/2g/2a/2b/2c'/2a/2|
g3faf|ege def|e2c e2e|c3c/2e/2d/2c/2B/2c/2|
d3dec|BcA GAG|G3{de}f2d|g2e def|e2c f2d|g2e def|
e2c c'ba|ag^f fed|de^f gab|c'2a {g}^fef|
g3.C.C.C|C2D E2F|G2"^*" (3G/2A/2B/2 c2G|c2G GAG|
GFE .C.C.C|C2D E2F|G2 (3G/2"^*"A/2B/2 c2G|AGF EFD|C3||
e/2f/2e/2d/2c/2B/2|A3aaa|f3d/2e/2d/2c/2B/2A/2|
G/2B/2c/2d/2e/2f/2 g2f|e3^g2"^*" (3g/2a/2b/2|abc' d'2c'|c'2a b2^g|a3|]

